X: 18080
T: Humours Of Ballyconnell, The
R: hornpipe
M: 4/4
K: Adorian
|:ed|c2 cB cBAG|AGEF GA (3Bcd|c2 cB cBAG|ABcd e^de=d|
c2 cB cBAG|AEAB c2 cB|ABAG EDEG|A2 (3AAA A2:|
|:(3EEE|ABcd e2 dc|d^cde g2 e^d|efga ba^gb|a2 (3aaa a2 zf|
gedB cBAG|AEAB c2 cB|ABAG EDEG|A2 (3AAA A2:|

